X:1
T:Le Charme
T:Le Charme
T:Armand Silvestre
C:Armand Silvestre
L:1/8
M:4/4
K:G
V:1 treble nm="Piano" snm="Pno."
V:1
!p! d2 cc B2 A2 | G3 F F2 FF | GG c4 BA | A4 B2 z2 | BB^cc d2 AA |[M:2/4] A4 |[M:4/4] AABB c2 GG | %7
[M:2/4] G2 G z |[M:4/4]!p! e2 dd c2 B2 | d3 c c2 cc | B2 A2 G2 GF | A4 G2 z2 |!p! ^GGAA d2 dc | %13
[M:2/4] c4 |[M:4/4] ^ccdd d2 gf |[M:2/4] f2 f !fermata!z |[M:4/4]!mf! d2 c2 B2 A2 | G2 GF F2 F2 | %18
 G3 G ccBA | A2 B2 z4 | z8 | z2 d2 c2 B2 | B2 A2 A2 G2 | G4 F2 z2 | G6 G2 | G8 | _E2 E2 =F2 E2 | %27
 D4 D2 z2 | z8 | z8 | z8 | z8 | z8 | z8 | z8 | z8 |] %36

